X:1
T:Is My Name Written There?
T:Is My Name Written There?
T:Frank Marion Davis
T:Mary Ann Kidder, 1876
T:Public Domain Courtesy of the Cyber Hymnal™
T:Public Domain Courtesy of the Cyber Hymnal™
C:Frank Marion Davis
Z:Public Domain
Z:Courtesy of the Cyber Hymnal™
%%score 1 ( 2 3 )
L:1/8
Q:1/4=110
M:3/4
K:Ab
V:1 treble 
V:2 bass 
V:3 bass 
V:1
 [CE]>[CE] | [CA]2 [EA]2 [EB]2 | [Ec]2 [CA]2 [CE]>[CE] | [DF]2 [FA]2 [Fd]2 | [Ec]4 [CA]>[DB] | %5
w: 1.~Lord, I|care not for|rich- es, ne- ither|sil- ver nor|gold; I would|
w: 2.~Lord, my|sins they are|ma- ny, like the|sands of the|sea, But Thy|
w: 3.~Oh! that|beau- ti- ful|ci- ty, with its|man- sions of|light, With its|
 [Ec]2 [Ec]2 [Ed]2 | [Ee]2 [Ee]2 [Ec]>[Ec] | [=DB]2 [DA]2 [Dc]2 | [EB]4 E>[DE] | %9
w: make sure of|Hea- ven, I would|en- ter the|fold. In the|
w: blood, O my|Sav- ior, is suf-|fi- cient for|me; For Thy|
w: glor- i- fied|be- ings, in pure|gar- ments of|white; Where no|
 [CA]2 [EA]2 [EB]2 | [Ec]2 [CA]2 [CE]>[CE] | [DF]2 [FA]2 [Fd]2 | [Ec]4 [Ec]>[Ed] | %13
w: book of Thy|king- dom, with its|pag- es so|fair, Tell me,|
w: prom- ise is|writ- ten, in bright|let- ters that|glow, “Though your|
w: e- vil thing|com- eth to de-|spoil what is|fair; Where the|
 [Ee]2 [Ee]2 [Ec]2 | [DB]2 !fermata![DA]2 [EA]>[FB] | [Ec]2 [Ec]2 [DB]2 | [CA]4 || %17
w: Je- sus, my|Sav- ior, is my|name wri- ten|there?|
w: sins be as|scar- let, I will|make them like|snow.”|
w: an- gels are|watch- ing, yes, my|name’s writ- ten|there.|
"^Refrain" [CA]>[DB] | [Ec]2 [Ec]2 [DB]2 | [CA]4 [CA]>[DB] | [Ec]2 [Ec]2 [Ee]2 | [EB]4 [Ec]>[Ed] | %22
w: |||||
w: Is my|name writ- ten|there, On the|page white and|fair? In the|
w: |||||
 [Ee]2 [Ee]2 [Ec]2 | [DB]2 !fermata![DA]2 [EA]>[FB] | [Ec]2 [Ec]2 [DB]2 | [CA]4 |] %26
w: ||||
w: book of Thy|king- dom, Is my|name writ- ten|there?|
w: ||||
V:2
 [A,,A,]>[A,,A,] | [A,,A,]2 [C,A,]2 [E,G,]2 | A,2 A,2 [A,,A,]>[A,,A,] | [D,A,]2 [D,A,]2 [D,A,]2 | %4
 A,4 [A,,A,]>[A,,A,] | [A,,A,]2 [A,,A,]2 [A,,B,]2 | [A,,C]2 [A,,C]2 [A,,A,]>[A,,A,] | %7
 [B,,F,]2 [B,,F,]2 [B,,A,]2 | [E,G,]4 [E,G,]>[E,G,] | [A,,A,]2 [C,A,]2 [E,G,]2 | %10
 A,2 A,2 [A,,A,]>[A,,A,] | [D,A,]2 [D,A,]2 [D,A,]2 | A,4 [A,,A,]>[A,,B,] | %13
 [A,,C]2 [A,,C]2 [C,A,]2 | [D,F,]2 !fermata![D,F,]2 [C,A,]>[D,A,] | [E,A,]2 [E,A,]2 [E,G,]2 | %16
 [A,,A,]4 || [A,,A,]>[A,,A,] | [A,,A,]2 [C,A,]2 [E,G,]2 | A,4 [A,,A,]>[A,,A,] | %20
 [A,,A,]2 [A,,A,]2 [C,A,]2 | [E,G,]4 [A,,A,]>[A,,B,] | [A,,C]2 [A,,C]2 [C,A,]2 | %23
 [D,F,]2 !fermata![D,F,]2 [C,A,]>[D,A,] | [E,A,]2 [E,A,]2 [E,G,]2 | [A,,A,]4 |] %26
V:3
 x2 | x6 | A,2 A,2 x2 | x6 | A,4 x2 | x6 | x6 | x6 | x6 | x6 | A,2 A,2 x2 | x6 | A,4 x2 | x6 | x6 | %15
 x6 | x4 || x2 | x6 | A,4 x2 | x6 | x6 | x6 | x6 | x6 | x4 |] %26

